X:658
M:C|
L:1/8
K:C
defd ecc||
|:G|ECEG FAFc|ECFE DG,G,F|1 ECEG AFAc|BdGf ecc:|2
EGFA G_Bac|Bagf ecc||

